X: 469
T: Death and the Sinner
N:"Moderate" "1st Setting" "collected by Cronin"
N:Irish title: an peaca.c agus an .bas
B:O'Neill's 469
Z:Transcribed by henrik.norbeck@mailbox.swipnet.se
M:3/4
L:1/8
K:Gdor
(AG) | F2 G2 (AB) | c4 (~fe) | def(dcA) | G2 (AGFD) |
B4 (AG) | A2 (dcA^F) | G4 A2 | G4 :|
(AB) | c2 d2 (eg) | f2 (.d2 .d2) | g4 f2 | g2 (agfd) |
f2 g2 af | g4 (fe) | def(dcA) | G2 (AGFD) |
f2 g2 af | g4 (fe) | (def)(dcA) | G2 (AGFD) |
B4 (AG) | A2 (dcA^F) | G4 A2 | G4 ||


